X:1
T:Cadiz
T:Cadiz (Canción)
T:Suite Española Op. 47 No. 2
T:Isaac Albéniz (1860 - 1909)
C:Isaac Albéniz
%%score ( 1 2 3 4 )
L:1/8
Q:1/4=110
M:3/4
K:A
V:1 treble-8 nm="Classical Guitar" snm="Guit."
V:2 treble-8 
V:3 treble-8 
V:4 treble-8 
V:1
"^Allegro ma non troppo"!mf! z (3e/c/A/ E [Ace]2 [Gce] | z (3e/d/G/ E [Gde]2 [E=ce] | %2
 z!pp! (3e/c/A/ E [Ace]2 [Gce] | z (3e/d/G/ E [Gde]2 [G=c] |!p! c2 c3 [Ac] | cE/4A/4c/4e/4 e4 | %6
 z d ef ag | bf e4 | c2 c3 [Ac] | cE/4A/4c/4e/4 e4 | z d ef ag | d'f e4 | a2 a3 g | %13
 g(3A/d/f/ fc ef | e(3F/B/d/ d^A dc | c(3F/=G/B/ B4 | [^da](3B/d/g/ g2 [Adf]b | ef ag bg | %18
 [A^df](3B/c/a/ a2 [Adg]2 | [GBe]!<(![Af] [Bg][fd'] [ec'][d^b]!<)! |!p! c2 c3 [Ac] | %21
 cE/4A/4c/4e/4 e4 | z d ef ag | bf e4 |!p! c2 c3 [Ac] | cE/4A/4c/4e/4 e4 | z d ef ag | %27
 d'f e2 [=FBe]{/^F}[=G^d] ||[K:C]!mf! e2 e3 [_Be] | gf ab e'd' | e2 e3 [_Be] | gf ab e'd' || %32
[K:A]!mf! e2 [de]2 [^Be]2 | [Ace][dgb] [ca][B^eg] [Af][=Gce] | d!<(!e ^e!<)!f!>(! ad!>)! | %35
 [Gdf] z z c'2 g | z (3e/c/A/ E [Ace]2 [Gce] | z (3e/d/G/ E [Gde]2 [E=ce] | %38
 z (3e/c/A/ E [Ace]2 [Gce]!dacoda! | z (3e/d/G/ E [Gde]2 [=ce] || %40
[K:C]!p! [ce][ce][ce][ce][ce][ce] | [ce][ce][ce][ce][ce][ce] |!pp! [ce][ce][ce][ce][ce][ce] | %43
 [ce][ce][ce][ce][ce][ce] |!sfz! c'(3(b/c'/b/) ab c'a | c'(3(b/c'/b/) ab c'a | %46
 g(3(f/g/f/) e2 [cf][dg] |!>(! [ea][dg] [cf][dg]!>)! [Be]2 | [ce][ce][ce][ce][ce][ce] | %49
 [ce][ce][ce][ce][ce][ce] | [ce][ce][ce][ce][ce][ce] | [ce][ce][ce][ce][ce][ce] | %52
!sfz! c'(3(b/c'/b/) ab c'a | c'(3(b/c'/b/) ab c'a | z2 [^Gc][Ac] [Be][Ad] | c(3(B/c/B/) A2 [CEA]2 | %56
!sfz! [^GB][GB][AB][AB][AB][AB] | [^GB][AB][^GB]!sfz! (3(f/g/f/)e e' | [^ge']2 d'2 [gc']b | %59
 (3(a/b/a/)g/f/ e2 e2 |!p! [^GB][GB][AB][AB][AB][AB] | [^GB][AB][^GB] (3f/g/f/e [dfb] | %62
 c'(3b/c'/b/ a>a (b/d'/)b/g/ | a(3(a/b/a/) g/c'/a/b/ [eg]2 |!mf! [AB]2 [^GB]2 [AB]2 | %65
!p! [^GB] b/c'/ d'/e'/d'/b/ ^g/c'/b/f/ | e z [^GB]2 [AB]2 | %67
 [^GB]!<(! b/c'/ d'/e'/d'/b/ ^g/c'/b/f/!<)! |!f! e D/E/ F/A/G/E/ D/F/E/C/ | %69
 (B,/C/D/)E/ D/B,/C/A,/ B,/G,/A,/F,/ | %70
!mf! z (3(!^!D/E/F/) (3(!^!E/F/E/)(3(!^!D/E/F/) (3(!^!E/F/E/)(3(!^!D/E/F/) | %71
 E!>(! !^!E2 !^!E2 E!>)!!D.C.! ||[K:A]O z (3e/d/G/ E [Gde]2 [E=ce] |!pp! [Ece] x x4 | x6 | %75
!pp! [c'a']6 | [EAc]6 |] %77
V:2
 A,4 E,^A, | B,4 E,G, | A,4 E,^A, | B,4 E,E | A,(3(^D/E/)A/xE E,E | x3 [EAc] E,[EAc] | %6
 B,(3d/E/G/ eE E,[EBd] | B,(3f/E/G/ z [Gd] E,[Gd] | A,(3(^D/E/)A/xE E,E | x3 [EAc] E,[EAc] | %10
 B,(3d/E/G/ eE E,[EBd] | B,(3f/E/G/ z [Gd] E,[G=c] | C(3=F/A/c/x[Ac] C[FA] | x4 ^A,[=Gc] | %14
 B,3 =G [FG][EG] | B,2 F^A cB | cB gB,- B,2 | GA cB ^dB | B,3 B,- B,B, | E,6 | %20
 A,(3(^D/E/)A/xE E,E | x3 [EAc] E,[EAc] | B,(3d/E/G/ eE E,[EBd] | B,(3f/E/G/ z [Gd] E,[Gd] | %24
 A,(3(^D/E/)A/xE E,E | x3 [EAc] E,[EAc] | B,(3d/E/G/ eE E,[EBd] | B,(3f/E/G/x[Gd] =G,2 || %28
[K:C] C(3(^F/G/)A/ GG G,^C | D(3f/G/A/- A G2 [Gf] | C(3(^F/G/)A/ GG G,^C | D(3f/G/A/- A G2 [Gf] || %32
[K:A] =c(3(B/c/B/) ^AB GE | A^E FC D^A, | [B,F] z z2 z2 | E,(3(^D/E/F/) E2 E,2 | A,4 E,^A, | %37
 B,4 E,G, | A,4 E,^A, | B,4 E,G ||[K:C] A(3(G/A/G/)FGAB | A(3(^G/A/G/) E4 | A(3(G/A/G/)FGAB | %43
 A(3(^G/A/G/) E4 | !>![Df]4 [A,ce]2 | [Df]4 [A,ce]2 | cA BB AB | cB AB ^GE | A(3(G/A/G/)FGAB | %49
 A(3(^G/A/G/) E4 | A(3(G/A/G/)FGAB | A(3(^G/A/G/) E4 | !>![Df]4 [A,ce]2 | [Df]4 [A,ce]2 | %54
 G(3(F/G/F/) E2 =GF | [E,D^G]2 [CE][DF] A,2 | E3 D/E/ F/=G/F/D/ | E(3(F/=G/F/)E [AB][^GB] z | %58
 [E,f](3(B/c/B/) d'[Bf^g] ed | [ce]2 [^GB][Ac] [GB]2 | E3 D/E/ F/=G/F/D/ | %61
 E(3(F/=G/F/)E [AB][^GB] =G | e2 f2 G2 | [cf]2 ef e2 | F(3(F/G/F/) EB,/E/ F(3(F/=G/F/) | %65
 E z z2 z2 | z (3(F/G/F/) EB,/E/ F(3(F/=G/F/) | E z z2 z2 | x6 | x6 | E,2 E,2 E,2 | E,6 || %72
[K:A] B,4 E,G, | A,E,/C/ A,/E/C/A/ E/c/A/e/ | c/a/E/c/ A/e/c/a/ e/c'/a/e'/ | x6 | A,6 |] %77
V:3
 x6 | x6 | x6 | x6 | x6 | A,4 x2 | x6 | x6 | x6 | A,4 x2 | x6 | x6 | x6 | D4 x2 | x6 | x6 | x6 | %17
 x6 | x6 | x6 | x6 | A,4 x2 | x6 | x6 | x6 | A,4 x2 | x6 | x6 ||[K:C] x6 | x6 | x6 | x6 || %32
[K:A] x6 | x6 | x6 | x6 | x6 | x6 | x6 | x6 ||[K:C] x6 | x6 | x6 | x6 | x6 | x6 | B2 ^G2 x2 | x6 | %48
 x6 | x6 | x6 | x6 | x6 | x6 | x6 | x6 | x6 | x6 | x6 | E,6 | x6 | x6 | c4 x2 | x6 | x6 | x6 | x6 | %67
 x6 | x6 | x6 | x6 | x6 ||[K:A] x6 | x6 | x6 | x6 | x6 |] %77
V:4
 x6 | x6 | x6 | x6 | x6 | x6 | x6 | x6 | x6 | x6 | x6 | x6 | x6 | x6 | x6 | x6 | x6 | x6 | x6 | %19
 x6 | x6 | x6 | x6 | x6 | x6 | x6 | x6 | x6 ||[K:C] x6 | x6 | x6 | x6 ||[K:A] x6 | x6 | x6 | x6 | %36
 x6 | x6 | x6 | x6 ||[K:C] x6 | x6 | x6 | x6 | x6 | x6 | E,6 | x6 | x6 | x6 | x6 | x6 | x6 | x6 | %54
 x6 | x6 | x6 | x6 | x6 | x6 | x6 | x6 | x6 | x6 | x6 | x6 | x6 | x6 | x6 | x6 | x6 | x6 || %72
[K:A] x6 | x6 | x6 | x6 | x6 |] %77

